src/actions/symbolic/align-vertical-bottom-symbolic.svg

<svg width="16" height="16" version="1.1" viewBox="0 0 4.233 4.233" xmlns="http://www.w3.org/2000/svg">
 <g fill="#363636">
  <path d="m4.233 3.7039h-4.233v-0.26488h0.53v-2.777c0-0.074 0.057-0.132 0.13-0.132h1.06c0.073 0 0.132 0.06 0.132 0.132v2.778h0.265v-1.985c0-0.073 0.059-0.132 0.132-0.132h1.058c0.074 0 0.133 0.059 0.133 0.132v1.985h0.793zm-1.058-0.26488v-1.851h-0.794v1.852zm-1.587 0v-2.644h-0.794v2.645z"/>
 </g>
</svg>

<svg xmlns="http://www.w3.org/2000/svg" width="16" height="16" viewBox="0 0 4.233 4.233">
    <path fill="#050505" d="M4.233 3.704H0v-.265h.53V.662A.13.13 0 0 1 .66.53h1.06c.073 0 .132.06.132.132V3.44h.265V1.455c0-.073.059-.132.132-.132h1.058c.074 0 .133.059.133.132V3.44h.793zm-1.058-.265V1.588h-.794V3.44zm-1.587 0V.795H.794V3.44z" opacity=".7"/>
</svg>
